X: 0
T: Cooley's
C: Joe and Séamus Cooley
M: 4/4
L: 1/8
K: Em
BG|:"Em"EBBA B2 EB|"Em"B2 AB "G"dBAG| "D"FDAD "G"BD"D"AD| "D"FDAD "Bm7"BAGF|
"Em"EBBA B2 EB| "Em"B2 AB "G"defg| "Bm"afec "Bm7"dBAF|1 "D"DEFD "Em"E2 GF:|2"D"DEFD "Em"E2 gf||
|: "Em"eB ~B2 eBgf| "Em"eB ~B2 "G"gedB| "D"A2 FA DAFA| "D"BAFA "Bm"defg|
"Em"eB ~B2 eBgf| "Em"eB ~B2 "G"defg| "Bm"afec "Bm7"dBAF|1 "D"DEFD "Em"E2 gf :|2"D"DEFD "Em"E2 |]